!!!COM: Music21
!!!OTL: barndance_North-Amerikay
!!!OMV: barndance_North-Amerikay
**kern
*clefG2
*k[]
*M4/4
=1
4g
=
4cc
8ccL
8bJ
4a
4a
=
8gL
8aJ
8gL
8fJ
4e
8eL
8gJ
=
4f
8fL
8eJ
4d
4B
=
2.c
8ccL
8ddJ
=||
4ee
4cc
4ff
4ee
=
4.dd
8b
4g
8eL
8gJ
=
4cc
4cc
8ddL
8eeJ
8ddL
8bJ
!!linebreak:original
=
2.cc
8ccL
8ddJ
=||
4ee
4cc
4ff
4ee
=
4.dd
8b
4g
8eL
8gJ
=
4cc
4cc
8ddL
8eeJ
8ddL
8bJ
=
2.cc
8eL
8gJ
=||
4cc
8ccL
8bJ
4a
4a
=
8gL
8aJ
8gL
8fJ
4.e
8g
=
4f
8fL
8eJ
4d
4B
=
*-
